icons/svg/telepresence-ix5000_16.svg

<svg width="16" height="16" viewBox="0 0 16 16" xmlns="http://www.w3.org/2000/svg"><title>hardware/telepresence-ix5000_16</title><path d="M11 9l4 0 0-4-4 0 0 4zm4 2.991c0 .558-.447 1.009-.994 1.009L1.994 13C1.447 13 1 12.549 1 11.991L1 10l14 0 0 1.991zM1 9l4 0 0-4-4 0 0 4zm5 0l4 0 0-4-4 0 0 4zM1.994 3l12.012 0c.544 0 .987.446.992 1L1.002 4c.005-.554.448-1 .992-1zm12.012-1L1.994 2C.895 2 0 2.899 0 4.009l0 7.982C0 13.097.893 14 1.994 14l12.012 0C15.105 14 16 13.1 16 11.991l0-7.982C16 2.902 15.107 2 14.006 2z" fill="#000" fill-rule="evenodd"/></svg>

<?xml version="1.0" encoding="UTF-8"?>
<svg width="16px" height="16px" viewBox="0 0 16 16" version="1.1" xmlns="http://www.w3.org/2000/svg" xmlns:xlink="http://www.w3.org/1999/xlink">
    <!-- Generator: Sketch 60.1 (88133) - https://sketch.com -->
    <title>hardware/telepresence-ix5000_16</title>
    <desc>Created with Sketch.</desc>
    <g id="hardware/telepresence-ix5000_16" stroke="none" stroke-width="1" fill="none" fill-rule="evenodd">
        <path d="M14.006,2 L1.994,2 C0.895,2 0,2.899 0,4.009 L0,11.991 C0,13.097 0.893,14 1.994,14 L14.006,14 C15.105,14 16,13.1 16,11.991 L16,4.009 C16,2.902 15.107,2 14.006,2 L14.006,2 Z M15,11.991 C15,12.549 14.553,13 14.006,13 L1.994,13 C1.447,13 1,12.549 1,11.991 L1,10 L15,10 L15,11.991 Z M11,9 L15,9 L15,5 L11,5 L11,9 Z M6,9 L10,9 L10,5 L6,5 L6,9 Z M1,9 L5,9 L5,5 L1,5 L1,9 Z M1.994,3 L14.006,3 C14.55,3 14.993,3.446 14.998,4 L1.002,4 C1.007,3.446 1.45,3 1.994,3 L1.994,3 Z" id="fill" fill="#171B1F"></path>
    </g>
</svg>
